alura/assets/api/cursos/databricks-criando-sistema-recomendacao.svg

<svg width="50" height="50" viewBox="0 0 50 50" fill="none" xmlns="http://www.w3.org/2000/svg">
<path d="M21.4201 1.31997L15.7001 1.35997C14.5801 1.35997 11.3001 4.39997 11.3001 5.51997L10.8701 16L39.8901 5.66997L37.9801 2.20997C37.9801 1.09997 22.5401 1.31997 21.4201 1.31997Z" fill="#BF94F7"/>
<path d="M6.04006 31.0001L6.23006 36.6001C6.46006 37.3201 10.9701 40.7701 11.6701 40.5201L39.6001 30.5801L39.3801 29.3401C39.9101 29.1501 39.0401 29.0001 39.0401 28.4401L37.8001 24.3501C37.5601 24.2701 37.8701 22.4801 37.9901 22.2501C39.5701 19.2301 41.1301 5.23007 40.3101 5.52007L10.1701 16.2901C10.1701 16.2901 12.4001 19.2601 12.3501 22.4001C12.3101 25.0501 10.4801 27.6801 10.6501 28.3901C10.6801 28.5101 6.03006 30.8801 6.04006 31.0001Z" fill="#A475EF"/>
<path d="M34.4101 43.5001C35.4701 42.2601 36.3501 40.8201 36.9901 39.2201C38.8601 39.8501 41.2701 38.6101 42.4401 36.3601C43.6401 34.0601 43.0701 31.5901 41.1801 30.8501C40.2501 30.4901 39.1801 30.6101 38.1801 31.1001C37.8501 27.5001 36.4401 24.2901 34.3301 21.8601" stroke="#444444" stroke-miterlimit="10" stroke-linecap="round" stroke-linejoin="round"/>
<path d="M15.4401 21.8801C13.3401 24.3001 11.9301 27.5101 11.6101 31.1001C10.6101 30.6101 9.54013 30.4901 8.61013 30.8501C6.72013 31.5901 6.15013 34.0601 7.35013 36.3601C8.52013 38.6101 10.9301 39.8501 12.8001 39.2201C14.9301 44.4601 19.5401 48.0901 24.9001 48.0901" stroke="#444444" stroke-miterlimit="10" stroke-linecap="round" stroke-linejoin="round"/>
<path d="M12.0601 29.1901C12.0601 29.1901 16.2701 26.6101 18.9001 23.1301C18.9001 23.1301 21.5801 27.6101 32.1101 29.8201C32.4001 29.8801 32.6101 29.5601 32.4401 29.3201C31.6301 28.1901 30.1301 25.9601 30.3301 25.2501C31.9801 25.8901 37.4401 26.8101 38.1501 30.8001" stroke="#444444" stroke-miterlimit="10" stroke-linecap="round" stroke-linejoin="round"/>
<path d="M35.0502 21.7901H16.0502C13.6602 21.7901 11.7202 19.85 11.7202 17.46V7.13005C11.7202 4.74005 13.6602 2.80005 16.0502 2.80005H35.0502C37.4402 2.80005 39.3802 4.74005 39.3802 7.13005V17.46C39.3802 19.85 37.4402 21.7901 35.0502 21.7901Z" stroke="#444444" stroke-miterlimit="10"/>
<path d="M25.5501 4.84009C21.4301 4.84009 18.1001 8.18009 18.1001 12.2901C18.1001 16.4001 21.4401 19.7401 25.5501 19.7401C29.6701 19.7401 33.0001 16.4001 33.0001 12.2901C33.0001 8.18009 29.6601 4.84009 25.5501 4.84009ZM29.3201 13.2301L23.8501 15.4501C23.1901 15.7201 22.4701 15.2301 22.4701 14.5201V10.0701C22.4701 9.36009 23.1901 8.87009 23.8501 9.14009L29.3201 11.3601C30.1501 11.7101 30.1501 12.8901 29.3201 13.2301Z" fill="#444444"/>
<path d="M21.0801 39.6899C21.0801 39.6899 24.7901 43.5399 28.9301 39.6899" stroke="#444444" stroke-miterlimit="10" stroke-linecap="round"/>
<path d="M16.54 31.45C16.54 31.45 18.81 33.3799 21.08 31.6399" stroke="#444444" stroke-miterlimit="10" stroke-linecap="round"/>
<path d="M28.4602 31.45C28.4602 31.45 30.7302 33.3799 33.0002 31.6399" stroke="#444444" stroke-miterlimit="10" stroke-linecap="round"/>
<path d="M25.1101 48.7C16.2001 48.7 12.3801 40.27 12.3801 40.27C7.8201 39.95 5.6301 37.47 5.7601 33.72C5.9501 28.45 10.9001 29.64 10.9001 29.64C10.4201 27.71 13.5301 22.19 13.5301 22.19C12.0501 21.26 10.9001 19.62 10.8601 16.43V7.74998C10.8601 4.41998 13.5601 1.72998 16.8801 1.72998H34.2201C37.5501 1.72998 40.2401 4.42998 40.2401 7.74998V16.42C40.2401 19.03 39.3601 21.86 36.0301 22.51C38.3101 24.58 38.7901 29.86 38.7901 29.86C42.0001 29.19 44.8401 31.77 43.8001 35.13C42.0001 40.94 37.5701 40.2 37.5701 40.2C37.5701 40.2 36.3001 42.8 34.5401 44.38" stroke="#444444" stroke-width="2.5" stroke-miterlimit="10" stroke-linecap="round" stroke-linejoin="round"/>
</svg>

<svg xmlns="http://www.w3.org/2000/svg" fill="none" viewBox="0 0 50 50"><path fill="#BF94F7" d="M21.42 1.32l-5.72.04c-1.12 0-4.4 3.04-4.4 4.16L10.87 16 39.89 5.67l-1.91-3.46c0-1.11-15.44-.89-16.56-.89z"/><path fill="#A475EF" d="M6.04 31l.19 5.6c.23.72 4.74 4.17 5.44 3.92l27.93-9.94-.22-1.24c.53-.19-.34-.34-.34-.9l-1.24-4.09c-.24-.08.07-1.87.19-2.1 1.58-3.02 3.14-17.02 2.32-16.73L10.17 16.29s2.23 2.97 2.18 6.11c-.04 2.65-1.87 5.28-1.7 5.99.03.12-4.62 2.49-4.61 2.61z"/><path stroke="#444" stroke-linecap="round" stroke-linejoin="round" stroke-miterlimit="10" d="M34.41 43.5c1.06-1.24 1.94-2.68 2.58-4.28 1.87.63 4.28-.61 5.45-2.86 1.2-2.3.63-4.77-1.26-5.51-.93-.36-2-.24-3 .25-.33-3.6-1.74-6.81-3.85-9.24m-18.89.02c-2.1 2.42-3.51 5.63-3.83 9.22-1-.49-2.07-.61-3-.25-1.89.74-2.46 3.21-1.26 5.51 1.17 2.25 3.58 3.49 5.45 2.86 2.13 5.24 6.74 8.87 12.1 8.87"/><path stroke="#444" stroke-linecap="round" stroke-linejoin="round" stroke-miterlimit="10" d="M12.06 29.19s4.21-2.58 6.84-6.06c0 0 2.68 4.48 13.21 6.69.29.06.5-.26.33-.5-.81-1.13-2.31-3.36-2.11-4.07 1.65.64 7.11 1.56 7.82 5.55"/><path stroke="#444" stroke-miterlimit="10" d="M35.05 21.79h-19c-2.39 0-4.33-1.94-4.33-4.33V7.13c0-2.39 1.94-4.33 4.33-4.33h19c2.39 0 4.33 1.94 4.33 4.33v10.33c0 2.39-1.94 4.33-4.33 4.33z"/><path fill="#444" d="M25.55 4.84a7.45 7.45 0 100 14.9 7.45 7.45 0 100-14.9zm3.77 8.39l-5.47 2.22c-.66.27-1.38-.22-1.38-.93v-4.45c0-.71.72-1.2 1.38-.93l5.47 2.22c.83.35.83 1.53 0 1.87z"/><path stroke="#444" stroke-linecap="round" stroke-miterlimit="10" d="M21.08 39.69s3.71 3.85 7.85 0m-12.39-8.24s2.27 1.93 4.54.19m7.38-.19s2.27 1.93 4.54.19"/><path stroke="#444" stroke-linecap="round" stroke-linejoin="round" stroke-miterlimit="10" stroke-width="2.5" d="M25.11 48.7c-8.91 0-12.73-8.43-12.73-8.43-4.56-.32-6.75-2.8-6.62-6.55.19-5.27 5.14-4.08 5.14-4.08-.48-1.93 2.63-7.45 2.63-7.45-1.48-.93-2.63-2.57-2.67-5.76V7.75c0-3.33 2.7-6.02 6.02-6.02h17.34c3.33 0 6.02 2.7 6.02 6.02v8.67c0 2.61-.88 5.44-4.21 6.09 2.28 2.07 2.76 7.35 2.76 7.35 3.21-.67 6.05 1.91 5.01 5.27-1.8 5.81-6.23 5.07-6.23 5.07s-1.27 2.6-3.03 4.18"/></svg>
